!!!!SEGMENT: pl-sa--155-a-iv-5--002_luna-georgius--vesperae-in-d-confitebor.krn
!!!id: 17xx:521
!!!COM: Luna, Georgius
!!!COM-rism: pe41010079
!!!CDT:
!!!CNT:
!!!OTL: Vesperae in D – Confitebor
!!!PDT:
!!!SMS-siglum: PL-SA
!!!SMS-shelfmark: 155/A IV 5
!!!NIFC-rismID: 1001070698
!!!URL-scan: http://bc.bdsandomierz.pl/dlibra/publication/1541/edition/1509/content
!!!ONB-nifc: UWAGA: części Vesperae: Dixit Dominus, Confitebor, Beatus vir, Laudate pueri, Laudate Dominum, Magnificat
!!!SMS-variant:
!!!SMS-altvar:
**kern	**dynam	**kern	**kern	**kern	**text	**kern	**text
*part5	*part5	*part4	*part3	*part2	*part2	*part1	*part1
*staff5	*	*staff4	*staff3	*staff2	*staff2	*staff1	*staff1
*group3	*	*group2	*group2	*group1	*	*group1	*
*I"Fundamento	*	*I"Violino Secundo	*I"Violino Primo	*I"Tenor	*	*I"Canto	*
*I'B	*	*I'vn II	*I'vn I	*I'T	*	*I'C	*
*clefF4	*	*clefG2	*clefG2	*clefC4	*	*clefC1	*
*k[f#c#]	*	*k[f#c#]	*k[f#c#]	*k[f#c#]	*	*k[f#c#]	*
*M4/4	*	*M4/4	*M4/4	*M4/4	*	*M4/4	*
*met(c)	*	*met(c)	*met(c)	*met(c)	*	*met(c)	*
=1	=1	=1	=1	=1	=1	=1	=1
!LO:TX:a:t=Allo Solo	!	!	!LO:TX:a:t=Allo n(on) molto	!LO:TX:b:t=Confite.	!	!LO:TX:a:t=Problem: brak jednej 4 w takcie	!
!LO:TX:b:t=Confitebor	!	!	!LO:TX:b:t=Confitebor	!	!	!	!
8D\L	.	00r	00r	00r	.	4ryy	.
8E\	.	.	.	.	.	.	.
8F#\	.	.	.	.	.	4dd\	Con-
8G\J	.	.	.	.	.	.	.
8A\L	.	.	.	.	.	8ff#\	-fi-
8B\	.	.	.	.	.	16ee\L	-te-
.	.	.	.	.	.	16cc#\J	.
.	.	.	.	.	.	4qqb/	.
8c#\	.	.	.	.	.	4a\	-bor
8F#\J	.	.	.	.	.	.	.
=2	=2	=2	=2	=2	=2	=2	=2
!LO:TX:a:t=Problem: mixed beam	!	!	!	!	!	!	!
8G\L	.	.	.	.	.	4b\	ti-
8E\	.	.	.	.	.	.	.
8A\	.	.	.	.	.	8a\L	-bi
8AA/J	.	.	.	.	.	8g\J	.
8D\L	.	.	.	.	.	16f#/	Do-
.	.	.	.	.	.	16e/	-mi-
16D\L	.	.	.	.	.	8d/	-ne
16E\JJ	.	.	.	.	.	.	.
8F#\L	.	.	.	.	.	8r	.
8D\J	.	.	.	.	.	8a\	in
=3	=3	=3	=3	=3	=3	=3	=3
!LO:TX:a:t=Problem: mixed beam	!	!	!	!	!	!	!
8G\L	.	.	.	.	.	8b\	to-
8G\	.	.	.	.	.	4dd\	.
8GG/	.	.	.	.	.	.	.
8G\J	.	.	.	.	.	8b\	-to
8D\L	.	.	.	.	.	8b\	cor-
8E\	.	.	.	.	.	4.a\	-de
8F#\	.	.	.	.	.	.	.
8D\J	.	.	.	.	.	.	.
=4	=4	=4	=4	=4	=4	=4	=4
8E\L	.	.	.	.	.	(4gg\	cor-
8C#\	.	.	.	.	.	.	.
8D\	.	.	.	.	.	4ff#\)	-de
8G\J	.	.	.	.	.	.	.
!LO:TX:a:t=Problem: mixed beam	!	!	!	!	!	!	!
8A\L	.	.	.	.	.	8ff#\	me-
8AA/	.	.	.	.	.	8ee\	-o
8C#/	.	.	.	.	.	4r	.
8AA/J	.	.	.	.	.	.	.
!	!	!	!	!	!	!LO:LB:g=original	!
=5	=5	=5	=5	=5	=5	=5	=5
8D\L	.	0r	0r	0r	.	8ff#\	in
8D\	.	.	.	.	.	8ff#\	con-
8G\	.	.	.	.	.	8ee\	-si-
8B\J	.	.	.	.	.	8dd\	-li-
!LO:TX:a:t=Problem: mixed beam	!	!	!	!	!	!	!
8A\L	.	.	.	.	.	16cc#\LL	-o
.	.	.	.	.	.	16b\JJ	.
8AA/	.	.	.	.	.	16a\LL	ius-
.	.	.	.	.	.	16b\JJ	.
8C#/	.	.	.	.	.	16cc#\LL	-to-
.	.	.	.	.	.	16dd\JJ	.
8D/J	.	.	.	.	.	16ee\LL	-rum
.	.	.	.	.	.	16ff#\JJ	.
=6	=6	=6	=6	=6	=6	=6	=6
8E\L	.	.	.	.	.	8gg\L	et
8C#\	.	.	.	.	.	8ee\J	.
8D\	.	.	.	.	.	8ff#\	con-
8F#\J	.	.	.	.	.	8dd\	-gre-
!LO:TX:a:t=Problem: mixed beam	!	!	!	!	!	!	!
8G\L	.	.	.	.	.	8b\	-ga-
8E\	.	.	.	.	.	8ee\	-ci-
8A\	.	.	.	.	.	4cc#\	-o-
8AA/J	.	.	.	.	.	.	.
=7	=7	=7	=7	=7	=7	=7	=7
!	!LO:DY:t=for	!	!	!	!	!	!
!	!LO:DY:a	!	!	!	!	!	!
8D\L	f	8f#/L	4.dd\	8F#/L	Ma-	8dd\	-ne
8E\	.	8g/	.	8G/J	.	4dd\	ma-
8F#\	.	8a/	.	8A\L	-gna	.	.
8G\J	.	8b/J	8ff#\	8B\J	.	8ff#\	-gna
8A\L	.	8cc#\L	16ee\LL	8c#\	o-	16ee\	o-
.	.	.	16cc#\JJ	.	.	16cc#\	-pe-
.	.	.	.	.	.	8qqb/	.
8B\	.	8dd\	4.a/	8d\	-pe-	4a\	-ra
8c#\	.	8ee\	.	8e\L	-ra	.	.
!	!	!	!	!	!	!LO:TX:a:t=problem:brak 8	!
8F#\J	.	8a\J	.	8c#\J	.	8ryy	.
!	!	!	!	!	!	!LO:LB:g=original	!
=8	=8	=8	=8	=8	=8	=8	=8
!LO:TX:a:t=Problem: mixed beam	!	!	!	!	!	!	!
8G\L	.	16g/LL	16b\LL	4G/	Do-	4b\	Do-
.	.	16b/	16dd\	.	.	.	.
8E\	.	16a/	16cc#\	.	.	.	.
.	.	16g/JJ	16b\JJ	.	.	.	.
!	!	!	!	!LO:TX:a:t=Problem: mixed beam	!	!	!
8A\	.	16f#/LL	16a/LL	8F#/L	.	8a\L	.
.	.	16e/	16g/	.	.	.	.
8AA/J	.	16d/	16f#/	8e\J	.	8g\J	.
.	.	16c#/JJ	16e/JJ	.	.	.	.
8D\L	.	16d/LL	16f#/LL	16d\	.	16f#/	.
.	.	16c#/J	16e/J	16c#\	-mi-	16e/	-mi-
8E\	.	8d/J	8d/J	8d\	-ni	8d/	-ni
8F#\	.	8a/L	16d/LL	4r	.	4r	.
.	.	.	16f#/	.	.	.	.
8D\J	.	8f#/J	16a/	.	.	.	.
.	.	.	16dd/JJ	.	.	.	.
=9	=9	=9	=9	=9	=9	=9	=9
!LO:TX:a:t=Problem: mixed beam	!	!	!	!	!	!	!
8G\L	.	16g\LL	16b\LL	8G/	ex-	8b\	ex-
.	.	16b\	16dd\	.	.	.	.
8G\	.	16dd\	16gg\	4B\	.	4dd\	.
.	.	16gg\JJ	16bb\JJ	.	.	.	.
8GG/	.	16dd\LL	16gg\LL	.	.	.	.
.	.	16b\JJ	16dd\	.	.	.	.
8G\J	.	16g/LL	16b\	8G/	-qui	8b\	-qui
.	.	16d/JJ	16g\JJ	.	.	.	.
!LO:LB:g=original	!	!	!	!	!	!	!
8D\L	.	16g/LL	16b/LL	8G/	se-	8b\	si-
.	.	16e/JJ	16g/JJ	.	.	.	.
8E\	.	4.f#/	4.a/	4.G/	-ta	4.a\	-ta
8F#\	.	.	.	.	.	.	.
8D\J	.	.	.	.	.	.	.
=10	=10	=10	=10	=10	=10	=10	=10
*	*	*Xtuplet	*Xtuplet	*	*	*	*
!	!	!LO:TX:a:t=problem:brak oznaczenia triol	!LO:TX:a:t=problem:brak oznaczenia triol	!	!	!	!
8E\L	.	24e/LL	24a\LL	(4e\	in	4gg\	in
.	.	24a/	24cc#\	.	.	.	.
.	.	24cc#/JJ	24ee\JJ	.	.	.	.
8C#\	.	4ee\	8gg\	.	.	.	.
8D\	.	.	4ff#\	4d\)	.	4ff#\	.
8G\J	.	8dd\	.	.	.	.	.
!LO:TX:a:t=Problem: mixed beam	!	!	!	!	!	!	!
8A\L	.	8dd\L	8ff#\L	8d\	o-	8ff#\	on-
8AA/	.	8cc#\J	8ee\J	8c#\	-mnes	8ee\	-nes
8C#/	.	16cc#\LL	16ee\LL	4r	.	4r	.
.	.	16a\	16cc#\	.	.	.	.
8AA/J	.	16ee\	16aa\	.	.	.	.
.	.	16cc#\JJ	16ee\JJ	.	.	.	.
=11	=11	=11	=11	=11	=11	=11	=11
8E\L	.	8b\	8dd\	4B\	vo-	4dd\	vo-
8e\J	.	4dd\	4bb\	.	.	.	.
8e\L	.	.	.	4B\	-lun-	4dd\	-lun-
8E\J	.	8b\	8dd\	.	.	.	.
!	!	!	!LO:LB:g=original	!LO:LB:g=original	!	!	!
8r	.	8a\	8cc#\	4A\	-ta-	4cc#\	-ta-
!LO:TX:a:t=Problem: mixed beam	!	!	!	!	!	!	!
8A\L	.	4cc#\	4aa\	.	.	.	.
8A\	.	.	.	4A\	-tes	4cc#\	-tes
8AA/J	.	8a\	8cc#\	.	.	.	.
!	!	!LO:LB:g=original	!	!	!	!	!
=12	=12	=12	=12	=12	=12	=12	=12
8r	.	8b\	8dd\	4B\	vo-	4dd\	vo-
!LO:TX:a:t=Problem: mixed beam	!	!	!	!	!	!	!
8e\L	.	4dd\	4bb\	.	.	.	.
8e\	.	.	.	4B\	-lun-	4dd\	-lun-
8E/J	.	8b\	8dd\	.	.	.	.
!	!	!	!LO:TX:a:t=Problem: klamra łukowa, kropka zamiast cyfry	!	!	!LO:LB:g=original	!
8AA/L	.	24cc#\LL	24cc#\LL	8A\	-ta-	(8cc#\	-ta-
.	.	24b\	24b\	.	.	.	.
.	.	24a\JJ	24a\JJ	.	.	.	.
!	!	!	!LO:TX:a:t=Problem: klamra łukowa, kropka zamiast cyfry	!	!	!	!
8BB/	.	24dd\LL	24dd\LL	(8B\	-tes	8dd\)	tes
.	.	24cc#\	24cc#\	.	.	.	.
.	.	24b\JJ	24b\JJ	.	.	.	.
!	!	!	!LO:TX:a:t=Problem: klamra łukowa, kropka zamiast cyfry	!	!	!	!
8C#/	.	24ee\LL	24ee\LL	8c#\)	vo-	8ee\	vo-
.	.	24dd\	24dd\	.	.	.	.
.	.	24cc#\JJ	24cc#\JJ	.	.	.	.
8E/J	.	16ff#\LL	(16ff#\LL	8B\	-lun-	8dd\	-lun-
.	.	16gg#X\JJ	16gg#X\JJ)	.	.	.	.
=13	=13	=13	=13	=13	=13	=13	=13
8AA/L	.	8aa\L	8aa\L	8A\	-ta-	8cc#\	-ta-
8BB/	.	16gg#X\L	16gg#X\L	(4c#\	.	4ee\	.
.	.	16ff#\JJ	16ff#\JJ	.	.	.	.
8C#/	.	16ee\LL	16ee\LL	.	.	.	.
.	.	16dd\	16dd\	.	.	.	.
8D/J	.	16cc#\	16cc#\	8B\)	-tes	8dd\	-tes
.	.	16b\JJ	16b\JJ	.	.	.	.
!LO:TX:a:t=Problem: mixed beam	!	!	!	!	!	!	!
8E\L	.	4a/	4a/	4A/	e-	4cc#\	e-
8D\	.	.	.	.	.	.	.
!	!	!	!LO:TX:a:t=e	!	!	!	!
8E\	.	4bT/	4b/	4G#X/	.	4b\	.
8EE/J	.	.	.	.	.	.	.
=14	=14	=14	=14	=14	=14	=14	=14
!LO:TX:a:t=Solo	!	!	!	!	!	!	!
4AA/	.	4a/	8a\L	4A\	-jus	4a\	-ius
.	.	.	16aa\L	.	.	.	.
.	.	.	16ff#\JJ	.	.	.	.
8r	.	8r	8.dd#\L	4r	.	4r	.
8F#\	.	8a/	.	.	.	.	.
.	.	.	(32ee\LL	.	.	.	.
.	.	.	32ff#\JJJ)	.	.	.	.
4G\	.	4b/	8ee\L	2r	.	2r	.
.	.	.	16ddn\L	.	.	.	.
.	.	.	16b\JJ	.	.	.	.
8r	.	8r	8.g#X/L	.	.	.	.
8E\	.	8g#X/	.	.	.	.	.
.	.	.	(32a/LL	.	.	.	.
.	.	.	32b/JJJ)	.	.	.	.
=15	=15	=15	=15	=15	=15	=15	=15
8AA/L	.	16a\LL	16a\LL	1r	.	00r	.
.	.	16aa\	16aa\	.	.	.	.
8D/	.	16ff#\	16ff#\	.	.	.	.
.	.	16dd\JJ	16dd\JJ	.	.	.	.
8C#/	.	16ee\LL	16ee\LL	.	.	.	.
.	.	16cc#\	16cc#\	.	.	.	.
8D/J	.	16dd\	16dd\	.	.	.	.
.	.	16b\JJ	16b\JJ	.	.	.	.
!LO:TX:a:t=Problem: mixed beam	!	!	!	!	!	!	!
8E\L	.	4a/	4a/	.	.	.	.
8E\	.	.	.	.	.	.	.
8EE/	.	4g#X/	4b/	.	.	.	.
8EE/J	.	.	.	.	.	.	.
!	!	!	!LO:PB:g=original	!	!	!	!
=16	=16	=16	=16	=16	=16	=16	=16
!	!	!	!	!LO:N:vis=4.	!	!	!
8AA/L	.	4a/	4a/	4A\	Con-	.	.
8BB/	.	.	.	.	.	.	.
8C#/	.	4r	4r	(8c#\	.	.	.
8D/J	.	.	.	16B\)	-feſ-	.	.
.	.	.	.	16G#X/	-si-	.	.
8E\L	.	2r	2r	4E/	-o	.	.
8F#\	.	.	.	.	.	.	.
8G\	.	.	.	4r	.	.	.
8C#\J	.	.	.	.	.	.	.
!	!	!	!	!LO:LB:g=original	!	!	!
=17	=17	=17	=17	=17	=17	=17	=17
8D\L	.	00r	00r	8f#\	et	.	.
8BB\J	.	.	.	8f#\	ma-	.	.
!LO:TX:a:t=Problem: mixed beam	!	!	!	!	!	!	!
8E\L	.	.	.	8e\	-gni-	.	.
8EE/J	.	.	.	8d\	-fi-	.	.
!LO:LB:g=original	!	!	!	!	!	!	!
!LO:TX:a:t=Problem: mixed beam	!	!	!	!	!	!	!
8AA/L	.	.	.	16c#\	-cen-	.	.
.	.	.	.	16B\	-ti-	.	.
8A\	.	.	.	8A/	-a	.	.
8G#X\	.	.	.	8d\	o-	.	.
8A\J	.	.	.	8c#\	-pus	.	.
=18	=18	=18	=18	=18	=18	=18	=18
8e\L	.	.	.	8c#\	e-	.	.
8E\J	.	.	.	8B\	-jus	.	.
16E\LL	.	.	.	8d\	et	.	.
16F#\	.	.	.	.	.	.	.
16G\	.	.	.	8d\	jus-	.	.
16A\JJ	.	.	.	.	.	.	.
8B\L	.	.	.	4d\	-ti-	.	.
8G#X\	.	.	.	.	.	.	.
8F#\	.	.	.	8d\	-ti-	.	.
8E\J	.	.	.	8d\	-a	.	.
=19	=19	=19	=19	=19	=19	=19	=19
8B\L	.	.	.	4d\	e-	0r	.
8G#X\	.	.	.	.	.	.	.
8F#\	.	.	.	4d\	-jus	.	.
8E\J	.	.	.	.	.	.	.
!LO:TX:a:t=Problem: mixed beam	!	!	!	!	!	!	!
8A\L	.	.	.	4c#\	ma-	.	.
8AA/	.	.	.	.	.	.	.
8D/	.	.	.	8B\	-net	.	.
8F#/J	.	.	.	8A\	in	.	.
!	!	!	!	!LO:LB:g=original	!	!	!
=20	=20	=20	=20	=20	=20	=20	=20
8E\L	.	.	.	8G#X/	sae-	.	.
8D\	.	.	.	8A/	-cu-	.	.
8C#\	.	.	.	8B\	-lum	.	.
8D\J	.	.	.	4.A\	sae-	.	.
!LO:TX:a:t=Problem: mixed beam	!	!	!	!	!	!	!
8E\L	.	.	.	.	.	.	.
8D\	.	.	.	.	.	.	.
8E\	.	.	.	8.B\	cu-	.	.
8EE/J	.	.	.	.	.	.	.
.	.	.	.	16B\	-li	.	.
=21	=21	=21	=21	=21	=21	=21	=21
!	!LO:DY:t=for	!	!	!	!	!	!
!	!LO:DY:a	!	!	!	!	!	!
8AA/L	f	8cc#\	8aa\	4A\	Me-	4cc#\	me-
8BB/	.	4a/	4cc#\	.	.	.	.
8C#/	.	.	.	8A\	-mo-	8cc#\	-mo-
8D/J	.	16g#X/LL	16b\LL	16A\	-ri-	16cc#\	-ri-
.	.	16f#/JJ	16a\JJ	16A\	-am	16cc#\	-am
!	!	!	!LO:TX:a:t=h	!	!	!	!
!	!	!LO:LB:g=original	!LO:TX:a:t=Problem:przekreślone gis	!	!	!	!
8E\L	.	8gny/	8b/	8G#X/	fe-	8b\	fe-
8F#\	.	4b\	4dd\	4.B\	-cit	8dd\	-cit
8G#X\	.	.	.	.	.	8dd\	mi-
8E\J	.	16a\LL	16cc#\LL	.	.	8dd\	-ra-
.	.	16g\JJ	16b\JJ	.	.	.	.
!	!	!	!	!	!	!LO:LB:g=original	!
=22	=22	=22	=22	=22	=22	=22	=22
8AA/L	.	16a\LL	16cc#\LL	8.A\	mi-	8cc#\	-bi-
.	.	16cc#\	16ee\	.	.	.	.
8BB/	.	16ff#\	16aa\	.	.	8ee\	-li-
.	.	16ee\JJ	16gg#X\JJ	8c#\	-ra-	.	.
8C#/	.	16dd\LL	16ff#\LL	.	.	8dd\	-um
.	.	16cc#\	16ee\	8B\	-bi-	.	.
8D/J	.	16b\	16dd\	.	.	8cc#\	su-
!	!	!	!	!LO:TX:a:t=problem:niejasny zapis rytmiczny (przednutka albo skreślony dźwięk)	!	!	!
!	!	!	!	!LO:N:vis=8	!	!	!
.	.	16a\JJ	16cc#\JJ	16A/	-lium	.	.
!LO:TX:a:t=Problem: mixed beam	!	!	!	!	!	!	!
8E\L	.	24a\LL	8cc#`\L	8A/	suo-	8cc#\	-o-
.	.	24g#X\	.	.	.	.	.
.	.	24ee\JJ	.	.	.	.	.
8EE/J	.	8ryy	16b\L	8G#X/	-rum	8b\	-rum
.	.	.	16ee\JJ	.	.	.	.
4r	.	4e/	4e/	4r	.	4r	.
=23	=23	=23	=23	=23	=23	=23	=23
8BB/L	.	8dd\	8bb\	4B\	mi-	4dd\	mi-
8C#/	.	4b\	4dd\	.	.	.	.
!	!	!	!	!LO:LB:g=original	!	!	!
8D/	.	.	.	8B\	-se-	8dd\	-se-
8E/J	.	16a#X/LL	16cc#\LL	8B\	-ri-	8dd\	-ri-
.	.	16g#X/JJ	16b\JJ	.	.	.	.
8F#\L	.	8a#\	8cc#\	8A#X\	-cors	8cc#\	-cors
8G#X\	.	4cc#\	4ee\	8c#\	et	8ee\	et
8A#X\	.	.	.	8c#\	mi-	8ee\	mi-
8F#\J	.	16b\LL	16dd\LL	8c#\	-se-	8ee\	-se-
.	.	16a#\JJ	16cc#\JJ	.	.	.	.
=24	=24	=24	=24	=24	=24	=24	=24
8BB/L	.	4b\	24dd\LL	8B\	-ra-	8dd\	-ra-
.	.	.	24ff#\	.	.	.	.
.	.	.	24ee\	.	.	.	.
8C#/	.	.	24dd\	8B\	-tor	8dd\	-tor
.	.	.	24cc#\	.	.	.	.
.	.	.	24b\JJ	.	.	.	.
8D/	.	8dd\L	8bb\L	8B\	Do-	8dd\	Do-
8E/J	.	8b\J	8dd\J	8B\	-mi-	8dd\	-mi-
!LO:TX:a:t=Problem: mixed beam	!	!	!	!	!	!	!
.	.	8qqcc#/	8qqee/	.	.	.	.
8F#\L	.	8b\L	8dd\L	8B\L	-nus	8dd\L	-nus
8FF#/	.	8a#X\J	8cc#\J	8A#X\J	.	8cc#\J	.
8F#\	.	24a#/LL	24a#X\LL	8c#\	es-	8ee\	es-
.	.	24g/	24g#X\	.	.	.	.
.	.	24f#/JJ	24f#\JJ	.	.	.	.
8F#\J	.	24a#/LL	24cc#\LL	8c#\	-cam	8ee\	-cam
.	.	24g/	24b\	.	.	.	.
.	.	24f#/JJ	24a#X\JJ	.	.	.	.
!LO:LB:g=original	!	!	!	!	!	!LO:LB:g=original	!
=25	=25	=25	=25	=25	=25	=25	=25
8F#\L	.	4cc#\	4ee\	8c#\	es-	8ee\	De-
8F#\	.	.	.	8c#\	-cam	8ee\	-dit
8F#\	.	24a#X\LL	24cc#\LL	8c#\	de-	8ee\	es-
.	.	24g#X\	24b\	.	.	.	.
.	.	24f#\JJ	24a#X\JJ	.	.	.	.
8F#\J	.	24cc#\LL	24ee\LL	8c#\	-dit	8ee\	-cam
.	.	24b\	24dd\	.	.	.	.
.	.	24a#X\JJ	24cc#\JJ	.	.	.	.
!	!	!	!LO:LB:g=original	!	!	!	!
8E\L	.	4.ee\	4.gg\	4c#\	de-	4ee\	De-
16e\L	.	.	.	.	.	.	.
16d\JJ	.	.	.	.	.	.	.
16c#\LL	.	.	.	8c#\	-dit	8ee\	-dit
16B\	.	.	.	.	.	.	.
16A#X\	.	16dd\LL	16ff#\LL	8c#\	ti-	8ee\	ti-
16F#\JJ	.	16cc#\JJ	16ee\JJ	.	.	.	.
!	!	!	!	!LO:LB:g=original	!	!	!
=26	=26	=26	=26	=26	=26	=26	=26
!LO:TX:a:t=Problem: mixed beam	!	!	!	!	!	!	!
8B\L	.	24dd\LL	24dd\LL	4B\	-men-	4dd\	-men-
.	.	24ff#\	24ff#\	.	.	.	.
.	.	24bb\JJ	24bb\JJ	.	.	.	.
8E\	.	24dd\LL	24dd\LL	.	.	.	.
.	.	24cc#\	24cc#\	.	.	.	.
.	.	24b\JJ	24b\JJ	.	.	.	.
8F#\	.	4cc#t\	4cc#t\	8A#X\	-ti-	8cc#\	-ti-
8FF#/J	.	.	.	8A#\	-bus	8cc#\	-bus
!	!	!LO:LB:g=original	!	!	!	!	!
8BB/L	.	16dd\LL	16dd\LL	4B\	se	4b\	se
.	.	16bb\	16bb\	.	.	.	.
8E/	.	16bb\	16bb\	.	.	.	.
.	.	16bb\JJ	16bb\JJ	.	.	.	.
8D/	.	16bb\LL	16bb\LL	4r	.	4r	.
.	.	16bb\	16bb\	.	.	.	.
8C#/J	.	16bb\	16bb\	.	.	.	.
.	.	16bb\JJ	16bb\JJ	.	.	.	.
=27	=27	=27	=27	=27	=27	=27	=27
8BB/L	.	8.bb\L	8.bb\L	1r	.	1r	.
8C#/	.	.	.	.	.	.	.
.	.	32aa#X\LL	32aa#X\LL	.	.	.	.
.	.	32gg\JJJ	32gg\JJJ	.	.	.	.
8D/	.	8ff#\L	8ff#\L	.	.	.	.
8E/J	.	8ee\J	8ee\J	.	.	.	.
*	*	*tuplet	*	*	*	*	*
!LO:TX:a:t=Problem: mixed beam	!	!	!	!	!	!	!
8F#\L	.	24dd\LL	24dd\LL	.	.	.	.
.	.	24ff#\	24ff#\	.	.	.	.
.	.	24ee\	24ee,\	.	.	.	.
8F#\	.	24dd\	24dd\	.	.	.	.
.	.	24cc#\	24cc#\	.	.	.	.
.	.	24b\JJ	24b\JJ	.	.	.	.
8FF#/	.	4cc#t\	4cc#\	.	.	.	.
8FF#/J	.	.	.	.	.	.	.
*	*	*Xtuplet	*	*	*	*	*
=28	=28	=28	=28	=28	=28	=28	=28
!	!LO:DY:t=piano	!	!	!	!	!	!
!	!LO:DY:a	!	!	!	!	!	!
8BB/L	p	8b\L	8b\L	4B\	me-	4dd\	me-
8BB/	.	8b\	8dd\	.	.	.	.
8BB/	.	8b\	8dd\	4B\	-mor	4dd\	-mor
8BB/J	.	8b\J	8dd\J	.	.	.	.
8F#\L	.	8b/L	8dd\L	8B\	e-	8dd\	e-
8F#\	.	8a#X/	8cc#\	8A\	-rit	8cc#\	-rit
8F#\	.	8a#/	8cc#\	4r	.	4r	.
8F#\J	.	8a#/J	8cc#\J	.	.	.	.
=29	=29	=29	=29	=29	=29	=29	=29
8F#\L	.	8cc#\L	8ee\L	4c#\	in	4ee\	in
8F#\	.	8cc#\	8ee\	.	.	.	.
8F#\	.	8cc#\	8ee\	8c#\	sae-	8ee\	se-
8F#\J	.	8cc#\J	8ee\J	16B\LL	-cu-	16dd\LL	-cu-
.	.	.	.	16A#X\JJ	.	16cc#\JJ	.
!	!	!	!	!	!	!LO:LB:g=original	!
8BB/L	.	16b/LL	16dd\LL	4B\	-lum	4dd\	-lum
.	.	16f#/	16dd\	.	.	.	.
8D/	.	16e/	16cc#\	.	.	.	.
.	.	16f#/JJ	16dd\JJ	.	.	.	.
8F#/	.	16dd\LL	16ff#\LL	4r	.	4r	.
.	.	16ff#\	16aa\	.	.	.	.
8A/J	.	16ee\	16gg\	.	.	.	.
.	.	16cc#\JJ	16ee\JJ	.	.	.	.
=30	=30	=30	=30	=30	=30	=30	=30
8D\L	.	4dd\	4ff#\	4d\	tes-	4ff#\	tes-
16D\L	.	.	.	.	.	.	.
16E\JJ	.	.	.	.	.	.	.
!LO:TX:a:t=Problem: mixed beam	!	!	!	!	!	!	!
16F#\LL	.	4dd\	4ff#\	4d\	-ta-	4ff#\	-ta-
16G\	.	.	.	.	.	.	.
16A\	.	.	.	.	.	.	.
16AA/JJ	.	.	.	.	.	.	.
!LO:TX:a:t=Problem: mixed beam	!	!	!	!	!	!	!
8D/L	.	8dd\L	8ff#\L	8d\	-men-	8ff#\	-men-
8d\	.	16cc#\L	16ee\L	16c#\LL	-ti	16ee\LL	-ti
.	.	16dd\JJ	16ff#\JJ	16d\JJ	.	16ff#\JJ	.
.	.	8qqff#/	8qqaa/	.	.	.	.
8G\	.	8ee\L	8gg\L	8e\L	sa-	8gg\L	su-
8A\J	.	16dd\L	16ff#\L	16d\L	.	16ff#\L	.
.	.	16cc#\JJ	16ee\JJ	16c#\JJ	.	16ee\JJ	.
!	!	!	!LO:LB:g=original	!LO:LB:g=original	!	!	!
=31	=31	=31	=31	=31	=31	=31	=31
4D\	.	8dd\L	8ff#\LL	8d\	-i	8ff#\	-i
.	.	.	.	.	.	.	.
.	.	8dd\	8ff#\	8d\	vir-	8ff#\	vir-
.	.	.	.	.	.	.	.
4r	.	8cc#\	8ee\	8c#\	-tu-	8ee\	-tu-
.	.	8b\J	8dd\JJ	8B\	-tem	8dd\	-tem
4A\	.	8a/L	8cc#\L	8A/	o-	8cc#\	o-
.	.	8g/	8b\	8G/	-pe-	8b\	-pe-
4r	.	8f#/	8a\	8F#/	-rum	8a\	-rum
.	.	8e/J	8g\J	8E/	su-	8g\	su-
!LO:LB:g=original	!	!	!	!	!	!	!
=32	=32	=32	=32	=32	=32	=32	=32
8r	.	4e/	4g/	4E/	-o-	4g\	-o-
8AA/	.	.	.	.	.	.	.
8D\L	.	8d/	8f#/L	8D/	-rum	8f#/	-rum
8F#\J	.	8r	8a/J	8r	.	8a\	a-
4G\	.	2r	4b\	2r	.	4b\	-nun-
4A\	.	.	4cc#\	.	.	4cc#\	-ti-
!	!	!LO:LB:g=original	!	!	!	!	!
=33	=33	=33	=33	=33	=33	=33	=33
!	!	!LO:TX:a:t=problem:brak 4	!	!	!	!	!
4D\	.	4ryy	16dd\LL	4r	.	16dd\LL	-a-
.	.	.	16cc#\JJ	.	.	16cc#\JJ	.
.	.	.	4dd\	.	.	8dd\	-bit
!	!	!	!	!	!	!LO:LB:g=original	!
4r	.	4r	.	8r	.	8r	.
.	.	.	8cc#\	8A/	a-	8cc#\	a-
4G\	.	8r	4dd\	4B\	-nun-	4dd\	-nun-
.	.	8a/	.	.	.	.	.
4A\	.	8b\L	4ee\	4c#\	-ti-	4ee\	-ti-
.	.	8cc#\J	.	.	.	.	.
=34	=34	=34	=34	=34	=34	=34	=34
4D\	.	8dd\L	8ff#\L	8d\	-a-	8ff#\	-a-
.	.	16cc#\L	16ee\L	16c#\LL	-bit	16ee\LL	-bit
.	.	16dd\JJ	16ff#\JJ	16d\JJ	.	16ff#\JJ	.
4r	.	8ee\L	8gg\L	8e\	po-	8gg\	po-
.	.	16dd\L	16ff#\L	16d\	-pu-	16ff#\	-pu-
.	.	16cc#\JJ	16ee\JJ	16c#\	-lo	16ee\	-lo
!LO:TX:a:t=Problem: mixed beam	!	!	!	!	!	!	!
8A\L	.	4dd\	4ff#\	4d\	su-	4ff#\	su-
8A\	.	.	.	.	.	.	.
!	!	!	!	!LO:LB:g=original	!	!	!
8AA/	.	4cc#\	4ee\	4c#\	.	4ee\	.
8AA/J	.	.	.	.	.	.	.
=35	=35	=35	=35	=35	=35	=35	=35
!	!LO:DY:t=for	!	!	!	!	!	!
!	!LO:DY:a	!	!	!	!	!	!
8D\L	f	16dd\LL	16dd\LL	4d\	-o	4dd\	-o
.	.	16ddd\	16ddd\	.	.	.	.
8D\	.	16ccc#\	16ccc#\	.	.	.	.
.	.	16bb\JJ	16bb\JJ	.	.	.	.
8D\	.	16aa\LL	16aa\LL	8d\	ut	8ff#\	ut
.	.	16gg\	16gg\	.	.	.	.
8D\J	.	16ff#\	16ff#\	8d\	det	8ff#\	det
.	.	16ee\JJ	16ee\JJ	.	.	.	.
!LO:TX:a:t=Problem: mixed beam	!	!	!	!	!	!	!
16D/LL	.	16dd\LL	16dd\LL	8d\	il-	8ff#\	il-
16d\	.	16dd\	16dd\	.	.	.	.
16c#\	.	16cc#\	16cc#\	16d\	-lis	16ff#\	-lis
16B\JJ	.	16b\JJ	16b\JJ	16d\	hae-	16ff#\	he-
16A\LL	.	16a/LL	16a/LL	8d\	-re-	8ff#\	-re-
16G\	.	16g/	16g/	.	.	.	.
16F#\	.	16f#/	16f#/	8d\	-di-	8ff#\	-di-
16E\JJ	.	16e/JJ	16e/JJ	.	.	.	.
=36	=36	=36	=36	=36	=36	=36	=36
!LO:TX:a:t=Problem: mixed beam	!	!	!	!	!	!	!
8D\L	.	16d/LL	16d/LL	8d\	-ta-	8ff#\	-ta-
.	.	16f#/	16f#/	.	.	.	.
8D\	.	16a/	16a/	8d\	-tem	8ff#\	-tem
.	.	16dd/JJ	16dd/JJ	.	.	.	.
!	!	!	!	!	!	!LO:LB:g=original	!
8A\	.	16a\LL	16a\LL	8c#\	gen-	8ee\	gen-
.	.	16cc#\	16cc#\	.	.	.	.
8AA/J	.	16ee\	16ee\	8c#\	-ti-	8ee\	-ti-
.	.	16gg\JJ	16gg\JJ	.	.	.	.
4D\	.	8ff#\L	8ff#\L	4d\	-um	4ff#\	-um
.	.	8dd\J	8dd\J	.	.	.	.
8F#\L	.	16ccn\LL	16ccn\LL	8A/	o-	8ccn\	oo-
.	.	16ff#\	16ff#\	.	.	.	.
8D\J	.	16aa\	16aa\	8A/	-pe-	8cc\	-pe-
.	.	16cc\JJ	16cc\JJ	.	.	.	.
!	!	!	!LO:LB:g-original	!	!	!	!
=37	=37	=37	=37	=37	=37	=37	=37
4G\	.	8b\	8b\L	4G/	-ra	8b\	-ra
.	.	4dd\	8dd\J	.	.	4dd\	.
8B\L	.	.	16dd\LL	8G/	ma-	.	.
.	.	.	16gg\	.	.	.	.
8A\J	.	8cc#\	16ff#\	16F#/LL	-nuum	8ccn\	ma-
.	.	.	16aa\JJ	16A/JJ	.	.	.
4G\	.	8b\	8gg\L	4G/	.	8b\	-num
.	.	4dd\	8dd\J	.	.	4dd\	.
8B\L	.	.	16dd\LL	8G/L	e-	.	.
.	.	.	16gg\	.	.	.	.
8A\J	.	8cc#\	16ff#\	16F#/L	.	8cc\	e-
.	.	.	16aa\JJ	16A/JJ	.	.	.
!	!	!LO:LB:g=original	!	!LO:LB:g=original	!	!	!
=38	=38	=38	=38	=38	=38	=38	=38
!	!	!LO:TX:a:t=Problem: mixed beam	!LO:TX:a:t=Problem: mixed beam	!	!	!	!
4G\	.	16gg\LL	16gg\LL	4G/	-ius	4b\	-ius
.	.	16g/	16g/	.	.	.	.
.	.	16b/	16b/	.	.	.	.
.	.	16dd/JJ	16dd/JJ	.	.	.	.
8B\L	.	16gg\LL	16gg\LL	8B\	ve-	8dd\	ve-
.	.	16bb\	16bb\	.	.	.	.
8G\J	.	16dd\	16dd\	8B\	-ri-	8dd\	-ri-
.	.	16ffn\JJ	16ffn\JJ	.	.	.	.
4cn\	.	8ee\L	8ee\L	4G/	-tas	4ee\	-tas
.	.	16ff\L	16ff#X\L	.	.	.	.
.	.	16gg\JJ	16gg\JJ	.	.	.	.
4A\	.	8aa\L	8aa\L	8c#\	et	8ee\	et
.	.	16bb\L	16bb\L	8c#\	ju-	8ee\	iu-
.	.	16cccn\JJ	16cccn\JJ	.	.	.	.
=39	=39	=39	=39	=39	=39	=39	=39
!LO:TX:a:t=Solo	!	!	!	!	!	!	!
8d\L	.	8ff#\L	8ff#\L	4A\	-di-	4ff#\	-di-
8c#\	.	16ee\L	16ee\L	.	.	.	.
.	.	16dd\JJ	16dd\JJ	.	.	.	.
8B\	.	8gg\L	8gg\L	8B\L	-ci-	8gg\L	.
8c#\J	.	8cc#\J	8cc#\J	8A\J	.	8cc#\J	.
!LO:TX:a:t=Problem: mixed beam	!	!	!	!	!	!	!
8d\L	.	4b/	4b\	4G/	.	4b\	.
8d\	.	.	.	.	.	.	.
8D/	.	4a/	4a\	4F#/	.	4a\	-ci-
8D/J	.	.	.	.	.	.	.
!LO:LB:g=original	!	!	!	!	!	!LO:LB:g=original	!
=40	=40	=40	=40	=40	=40	=40	=40
!	!	!LO:TX:a:t=Problem: mixed beam	!LO:TX:a:t=Problem: mixed beam	!	!	!	!
8G\L	.	16g/LL	16g/LL	4G/	-um	4e/	-um
.	.	16gg\	16gg\	.	.	.	.
8cn\	.	16gg\	16gg\	.	.	.	.
.	.	16gg\JJ	16gg\JJ	.	.	.	.
8B\	.	16gg\LL	16gg\LL	4r	.	4r	.
.	.	16gg\	16gg\	.	.	.	.
8A\J	.	16gg\	16gg\	.	.	.	.
.	.	16gg\JJ	16gg\JJ	.	.	.	.
8G\L	.	8.ggT\L	8.ggT\L	2r	.	2r	.
8A\	.	.	.	.	.	.	.
.	.	32ff#\LL	32ff#\LL	.	.	.	.
.	.	32ee\JJJ	32ee\JJJ	.	.	.	.
8B\	.	8dd\L	8dd\L	.	.	.	.
8c\J	.	8cc#\J	8cc#\J	.	.	.	.
=41	=41	=41	=41	=41	=41	=41	=41
!LO:TX:a:t=Problem: mixed beam	!	!	!	!	!	!	!
8d\L	.	24b\LL	24b\LL	2r	.	00r	.
.	.	24dd\	24dd\	.	.	.	.
.	.	24cc#\	24cc#\	.	.	.	.
8c#\	.	24b\	24b\	.	.	.	.
.	.	24a\	24a\	.	.	.	.
.	.	24g\JJ	24g\JJ	.	.	.	.
8d\	.	4aT/	4a/	.	.	.	.
8D/J	.	.	.	.	.	.	.
4G\	.	4g/	4g/	8r	.	.	.
.	.	.	.	8G/	Fi-	.	.
8r	.	4r	4r	4g\	-de-	.	.
8c#\	.	.	.	.	.	.	.
!	!	!	!LO:LB:g-original	!	!	!	!
=42	=42	=42	=42	=42	=42	=42	=42
4d\	.	2r	2r	8g\L	.	.	.
.	.	.	.	16f#\L	.	.	.
.	.	.	.	16e\JJ	.	.	.
4D/	.	.	.	8d\	-li-	.	.
.	.	.	.	8c#\	-a	.	.
8G\L	.	8r	8r	16B\	o-	.	.
.	.	.	.	16A\	-mni-	.	.
8G\	.	8b\L	8dd\L	8G/	-a	.	.
!	!	!	!	!LO:LB:g=original	!	!	!
8B\	.	8b\	8dd\	8r	.	.	.
8G\J	.	8b\J	8dd\J	8d\	man-	.	.
=43	=43	=43	=43	=43	=43	=43	=43
*2\right	*	*	*	*	*	*	*
*tremolo	*	*	*	*	*	*	*
8C#/L	.	8g/L	8ee\L	8e\	-da-	.	.
8C#/	.	8g/	8ee\	4g\	.	.	.
8C#/	.	8g/	8ee\	.	.	.	.
8C#/J	.	8g/J	8ee\J	8e\	-ta	.	.
8G\L	.	8cc#\L	8ee\L	16e\LL	e-	.	.
.	.	.	.	16c#\JJ	.	.	.
8G\	.	8b\	8dd\	4.d\	-jus	.	.
8G\	.	8b\	8dd\	.	.	.	.
8G\J	.	8b\J	8dd\J	.	.	.	.
!	!	!LO:LB:g=original	!	!	!	!	!
=44	=44	=44	=44	=44	=44	=44	=44
8D\L	.	8a/L	8ccn\L	8cn\	Con-	.	.
8D\	.	8a/	8cc\	4a\	-fir-	.	.
8D\	.	8a/	8cc\	.	.	.	.
8D\J	.	8a/J	8cc\J	8c\	-ma-	.	.
*Xtremolo	*	*	*	*	*	*	*
!LO:TX:a:t=Problem: mixed beam	!	!	!	!	!	!	!
8D\L	.	8a/L	8cc\L	16c\LL	-ta	.	.
.	.	.	.	16A\JJ	.	.	.
8G\	.	8g/	8b\	4B\	.	.	.
8G\	.	8g/	8b\	.	.	.	.
8GG/J	.	8b/J	8dd\J	8d\	in	.	.
=45	=45	=45	=45	=45	=45	=45	=45
4G\	.	8b/	8dd\	16g\LL	Sae-	0r	.
.	.	.	.	16f#\JJ	.	.	.
.	.	4a/	4ccn\	16e\	-cu-	.	.
.	.	.	.	16d\	-lum	.	.
8r	.	.	.	8cn\	Sae-	.	.
8G\	.	8g/	8b\	8B\	-cu-	.	.
!LO:TX:a:t=Problem: mixed beam	!	!	!	!	!	!	!
8d\L	.	8f#/L	8a/L	4A\	-li	.	.
8D/	.	8f#/	8a/	.	.	.	.
8D/	.	8f#/	8a/	4r	.	.	.
8D/J	.	8f#/J	8a/J	.	.	.	.
=46	=46	=46	=46	=46	=46	=46	=46
4D\	.	8r	8r	8A\	fac-	.	.
!	!	!	!	!LO:LB:g=original	!	!	!
.	.	8f#/L	8a\L	4B\	-ta	.	.
4r	.	(8g/	8b\	.	.	.	.
.	.	8a/J)	8ccn\J	8cn\	in	.	.
4G\	.	8r	8r	8B\	ve-	.	.
.	.	8b\L	8dd\L	4d\	.	.	.
4r	.	8a\	8ccn\	.	.	.	.
.	.	8g\J	8b\J	8g\	-ri-	.	.
=47	=47	=47	=47	=47	=47	=47	=47
4D\	.	8r	8r	8A\	-ta-	1r	.
.	.	8f#/L	8a\L	4B\	-te	.	.
4r	.	(8g/	8b\	.	.	.	.
!	!	!	!LO:SIC:s=8c#=v	!	!	!	!
.	.	8a/J)	8cc#\J	8c#\	et	.	.
4G\	.	8r	8r	8B\	ae-	.	.
.	.	8b\L	8dd\L	4d\	.	.	.
8r	.	8a\	8ccn\	.	.	.	.
8GG/	.	8g\J	8b\J	8g\	-qui-	.	.
!LO:LB:g=original	!	!	!	!	!	!	!
=48	=48	=48	=48	=48	=48	=48	=48
!LO:TX:a:t=Problem: mixed beam	!	!	!	!	!	!	!
8D\L	.	4g/	4b/	8B\L	-ta-	2r	.
8D\	.	.	.	16A\L	.	.	.
.	.	.	.	16G\JJ	.	.	.
8DD/	.	4f#t/	4aT/	4A\	.	.	.
8DD/J	.	.	.	.	.	.	.
!LO:TX:a:t=Problem: mixed beam	!	!LO:TX:a:t=Problem: mixed beam	!LO:TX:a:t=Problem: mixed beam	!	!	!	!
8GG/L	.	8g/L	8g/L	8G,/	-te	8r	.
8G\	.	16gg\L	16bb\L	8B\	Re-	8b\	re-
.	.	16gg\JJ	16bb\JJ	.	.	.	.
8G\	.	16dd\LL	16gg\LL	8B\	-dem-	8b\	-dem-
.	.	16dd\	16gg\	.	.	.	.
8G\J	.	16b\	16dd\	8B\	-pti-	8b\	-pti-
.	.	16b\JJ	16dd\JJ	.	.	.	.
!	!	!	!LO:LB:g-original	!	!	!	!
=49	=49	=49	=49	=49	=49	=49	=49
*tremolo	*	*	*	*	*	*	*
!	!	!LO:TX:a:t=Problem: mixed beam	!	!	!	!	!
8G\L	.	16g/LL	16b\LL	8B\	-o-	8b\	-o-
.	.	16g/	16b\	.	.	.	.
8G\	.	16gg\	16bb\	8B\	-nem	8b\	-nem
.	.	16gg\JJ	16bb\JJ	.	.	.	.
8G\	.	16dd\LL	16gg\LL	8B\	mi-	8b\	mi-
.	.	16dd\	16gg\	.	.	.	.
8G\J	.	16b\	16dd\	8B\	-sit	8b\	-sit
.	.	16b\JJ	16dd\JJ	.	.	.	.
*Xtremolo	*	*	*	*	*	*	*
8G\L	.	8g\L	8b\L	8B\	po-	8b\	po-
8A\	.	8ee\	8gg\	16e\	-pu-	16gg\	-pu-
.	.	.	.	16e\	-lo	16gg\	-lo
8A\	.	8ee\	8gg\	4e\	su-	4gg\	su-
8A\J	.	8ee\J	8gg\J	.	.	.	.
!	!	!	!	!LO:LB:g=original	!	!	!
=50	=50	=50	=50	=50	=50	=50	=50
!	!	!LO:TX:a:t=Problem: mixed beam	!	!	!	!	!
8D\L	.	8dd\L	8ff#\	8d\	-o	8ff#\	-o
8D\	.	8f#/	4dd\	8F#/	man-	8dd\	man-
8E\	.	8g/	.	8G/	-da-	8dd\	-da-
8F#\J	.	8a/J	8ccn\	8A/	-vit	8ccn\	-vit
8G\L	.	8b/L	8b\	8B\	in	8b\	in
8E\	.	8g/	4ee\	8G#X/	ae-	8ee\	e-
!	!	!	!	!	!	!LO:LB:g=original	!
8F#\	.	8a/	.	8A/	-ter-	8ee\	-ter-
8G\J	.	8b/J	8dd\	8B\	-num	8dd\	-num
!	!	!LO:PB:g=original	!	!	!	!	!
=51	=51	=51	=51	=51	=51	=51	=51
8A\L	.	8cc#X\L	8cc#X\	8c#\	tes-	8cc#\	tes-
8A\	.	8cc#\	4aa\	8c#\	-ta-	8aa\	-ta-
8B\	.	8dd\	.	8d\	-men-	8aa\	-men-
8c#X\J	.	8ee\J	8gg\	8e\	-tum	8gg\	-tum
!LO:TX:a:t=Problem: mixed beam	!	!	!	!	!	!	!
8d\L	.	8dd\L	8ff#\L	4d\	Su-	4ff#\	su-
8D/	.	8ff#\	8ddd\	.	.	.	.
8A\	.	8cc#\	8ee\	4c#t\	um	4ee\	-um
8AA/J	.	8ee\J	8ccc#\J	.	.	.	.
=52	=52	=52	=52	=52	=52	=52	=52
!LO:TX:a:t=adagio	!	!	!LO:TX:a:t=adagio	!	!	!	!
!LO:TX:a:t=Problem: mixed beam	!	!LO:TX:a:t=adagio	!LO:TX:a:t=Problem: mixed beam	!LO:TX:a:t=adagio	!	!LO:TX:a:t=ada	!
!	!	!	!LO:TX:a:t=c	!	!	!	!
8D/L	.	16.ff#\LL	16.ddd\LL	8d\	San-	8ff#\	san-
.	.	32ff#\K	32dd\K	.	.	.	.
8d\	.	16.ff#\	16.dd\	8d\	-ctus	8ff#\	-ctum
.	.	32ff#\JJk	32dd\JJk	.	.	.	.
8d\	.	4ff#\	4dd\	8d\	et	8ff#\	e
8d\J	.	.	.	8d\	ter-	8ff#\	te-
8B\L	.	16.ff#\LL	16.ddd\LL	8d\	-ri-	8ff#\	-ri-
.	.	32ff#\K	32dd\K	.	.	.	.
8B\	.	16.ff#\	16.dd\	8d\	-bi-	8ff#\	-bi-
.	.	32ff#\JJk	32dd\JJk	.	.	.	.
8B\	.	4ff#\	4dd\	4d\	-le	4ff#\	-le
8B\J	.	.	.	.	.	.	.
!	!	!	!	!LO:PB:g=original	!	!	!
=53	=53	=53	=53	=53	=53	=53	=53
8G#X\L	.	16.ff#\LL	16.ddd\LL	8d\	No-	8ff#\	no-
.	.	32ff#\K	32dd\K	.	.	.	.
8G#\	.	16.ff#\	16.dd\	8d\	-men	8ff#\	-men
.	.	32ff#\JJk	32dd\JJk	.	.	.	.
8G#\	.	8ff#\L	8dd\L	4d\	e-	4ff#\	e-
8G#\J	.	8ff#\J	8ddd\J	.	.	.	.
4A\	.	4ee\	4aa\	4c#\	-jus	4ee\	-ius
4r	.	4r	4a/	4r	.	4a\	i-
!	!	!	!	!	!	!LO:LB:g=original	!
=54	=54	=54	=54	=54	=54	=54	=54
!	!	!	!	!	!	!LO:TX:a:t=Problem: dodatkowy przekreślony tekst przez 3 takty	!
2r	.	2r	8.gg\L	2r	.	8.gg\	-ni-
.	.	.	16gg\Jk	.	.	16gg\	-ti-
.	.	.	8gg\L	.	.	4gg\	-um
.	.	.	8gg\	.	.	.	.
8A\L	.	8ee\L	8gg\	8e\	Sa-	8gg\	sa-
8A\	.	8ee\	8gg\	8e\	-pi-	8gg\	-pi-
8A\	.	8ee\	8gg\J	8e\	-en-	8gg\	-en-
8A\J	.	8ee\J	8ryy	8e\	-ti-	8gg\	-ti-
=55	=55	=55	=55	=55	=55	=55	=55
4D/	.	4dd\	4ff#\	4d,\	-ae	4ff#\	-e
4B-X\	.	4ryy	4ff#\	4d\	Ti-	4ffn\	ti-
!	!	!	!LO:LB:g-original	!	!	!	!
8G#X\L	.	8dd\L	8ff#\L	8d\	-mor	8ff\	-mor
8G#\	.	8dd\	8ff#\	8d\	Do-	8ff\	do-
8G#\	.	8dd\	8ff#\	8d\	-mi-	8ff\	-mi-
8G#\J	.	8dd\J	8ff#\J	8d\	-ni	8ff\	-ni
!8G\	!	!	!	!	!	!	!
=56	=56	=56	=56	=56	=56	=56	=56
!	!	!LO:TX:a:t=Problem: mixed beam	!	!	!	!	!
!LO:TX:a:t=Allo	!	!LO:TX:a:t=Allo	!LO:TX:a:t=Allo	!LO:TX:a:t=Allo	!	!LO:TX:a:t=Allo	!
8A\L	.	8cc#\L	8ee\L	4c#\	In-	4ee\	in-
8A\	.	16e/L	16a\L	.	.	.	.
.	.	16e/JJ	16a\JJ	.	.	.	.
8A\	.	16a\LL	16cc#\LL	8c#\	-tel-	8ee\	-tel-
.	.	16a\	16cc#\	.	.	.	.
8A\J	.	16cc#\	16ee\	8c#\	-le-	8ee\	-le-
.	.	16cc#\JJ	16ee\JJ	.	.	.	.
=yy	=yy	=	=yy	=yy	=yy	=yy	=yy
!	!	!LO:TX:a:t=Problem: mixed beam	!LO:TX:a:t=Problem: mixed beam	!	!	!	!
8A\L	.	8ee\L	8gg\L	8c#\	-ctus	8ee\	-ctus
8A\	.	16e/L	16a/L	8c#\	bo-	8ee\	bo-
.	.	16e/JJ	16a/JJ	.	.	.	.
8A\	.	16a\LL	16cc#\LL	8c#\	-nus	8ee\	-nus
.	.	16a\	16cc#\	.	.	.	.
8A\J	.	16cc#\	16ee\	8c#\	.	8ee\	o-
.	.	16cc#\JJ	16ee\JJ	.	.	.	.
!	!	!	!	!LO:LB:g=original	!	!LO:LB:g=original	!
=57	=57	=57	=57	=57	=57	=57	=57
!	!	!LO:TX:a:t=Problem: mixed beam	!LO:TX:a:t=Problem: mixed beam	!	!	!	!
8A\L	.	8ee\L	8gg\L	16c#\	fa-	16ee\	-mni-
.	.	.	.	16c#\	-ci-	16ee\	-bus
8A\	.	16e/L	16a/L	8c#\	-en-	8ee\	fa-
.	.	16e/JJ	16a/JJ	.	.	.	.
8A\	.	16a\LL	16cc#\LL	8c#\	-ti-	8ee\	-ci-
.	.	16a\	16cc#\	.	.	.	.
8A\J	.	16cc#\	16ee\	8c#\	-bus	8ee\	-en-
.	.	16cc#\JJ	16ee\JJ	.	.	.	.
!LO:TX:a:t=Problem: mixed beam	!	!LO:LB:g=original	!	!	!	!	!
8A\L	.	16ee\LL	16gg\LL	8c#\	e-	8ee\	-ti-
.	.	16cc#\JJ	16ee\	.	.	.	.
8AA/	.	16a/LL	16cc#\	16c#\	-um	16ee\	-bus
.	.	16f#/JJ 16a	16a\JJ	16c#\	lau-	16ee\	e-
8AA/	.	8e/L	8g/L	4c#\	-da-	4ee\	-um
8AA/J	.	8e/J	8g/J	.	.	.	.
=58	=58	=58	=58	=58	=58	=58	=58
!	!	!	!LO:TX:a:t=Problem: mixed beam	!	!	!	!
8D\L	.	8d/L	16f#/LL	8d\	-ti-	8ff#\	lau-
.	.	.	16dd\	.	.	.	.
16D\L	.	8a/	16dd\	8A/	-o	8dd\	-da-
16E\JJ	.	.	16dd\JJ	.	.	.	.
8F#\L	.	8a/	16dd\LL	8A/	e-	8dd\	-ti-
.	.	.	16ff#\	.	.	.	.
16E\L	.	8a/J	16dd\	16F#/	-jus	16a\	-o
16D\JJ	.	.	16a\JJ	16F#/	e-	16a\	e-
!	!	!LO:TX:a:t=Problem: mixed beam	!	!	!	!	!
8G\L	.	8d/L	16b\LL	8B\	-jus	8b\	-ius
.	.	.	16ee\	.	.	.	.
16E\L	.	8b\	16ee\	8B\	.	8ee\	ma-
16F#\JJ	.	.	16ee\JJ	.	.	.	.
8G\L	.	8b\	16ee\LL	8B\L	ma-	8ee\L	-net
.	.	.	16gg\	.	.	.	.
16F#\L	.	8b\J	16ee\	8G\J	.	8b\J	.
16E\JJ	.	.	16b\JJ	.	.	.	.
=59	=59	=59	=59	=59	=59	=59	=59
!	!	!LO:TX:a:t=Problem: mixed beam	!	!	!	!	!
8A\L	.	8e/L	16cc#\LL	8A/	-net	8cc#\	in
.	.	.	16ff#\	.	.	.	.
16F#\L	.	8cc#\	16ff#\	8d\	in	8ff#\	se-
16G\JJ	.	.	16ff#\JJ	.	.	.	.
!	!	!	!	!	!	!LO:LB:g=original	!
8A\L	.	8cc#\	16ff#\LL	8d\	sae-	8ff#\	-cu-
.	.	.	16aa\	.	.	.	.
16G\L	.	8cc#\J	16ff#\	8A/	.	8cc#\	-lum
16F#\JJ	.	.	16cc#\JJ	.	.	.	.
!	!	!	!	!LO:LB:g=original	!	!	!
8B\L	.	16cc#\LL	16dd\LL	8A/	-cu-	(8dd\	sae-
.	.	16ee\	16gg\	.	.	.	.
16G\L	.	16ee\	16gg\	(4e\	-lum	4gg\)	-si-
16A\JJ	.	16ee\JJ	16gg\JJ	.	.	.	.
8B\L	.	8ee\L	16gg\LL	.	.	.	.
.	.	.	16bb\	.	.	.	.
16A\L	.	8b\J	16gg\	8c#\)	.	8ee\	.
16G\JJ	.	.	16ee\JJ	.	.	.	.
!	!	!	!LO:LB:g-original	!	!	!	!
=60	=60	=60	=60	=60	=60	=60	=60
!LO:TX:a:t=Problem: mixed beam	!	!	!	!	!	!	!
8A\L	.	8e/L	8cc#\L	8c#\L	Sae-	8ee\L	.
8D\	.	8f#/	8dd\	8d\J	.	8ff#\J	.
8A\	.	8f#/	8a\	8.c#\	.	8.ee\	.
8AA/J	.	8f#/J	8cc#\J	.	.	.	.
.	.	.	.	16c#\	-cu-	16ee\	-cu-
!LO:TX:a:t=Problem: mixed beam	!	!	!	!	!	!	!
8D\L	.	16f#/LL	16dd\LL	4d\	-li	4ff#\	-li
.	.	16a/	16a\	.	.	.	.
8F#\	.	16f#/	16f#\	.	.	.	.
.	.	16d/JJ	16d\JJ	.	.	.	.
!	!	!LO:TX:a:t=Problem: mixed beam	!LO:TX:a:t=Problem: mixed beam	!	!	!	!
8A\	.	8A/L	8A/L	4r	.	4r	.
8AA/J	.	8cc#\J	8cc#\J	.	.	.	.
=61	=61	=61	=61	=61	=61	=61	=61
!LO:TX:a:t=Solo	!	!	!	!	!	!	!
8D\L	.	4dd\	4dd\	00r	.	4dd\	Glo-
8E\	.	.	.	.	.	.	.
8F#\	.	4r	4r	.	.	8dd\	-ri-
8G\J	.	.	.	.	.	8ff#\	-a
8A\L	.	2r	2r	.	.	16ee\LL	pa-
.	.	.	.	.	.	16cc#\JJ	.
8B\	.	.	.	.	.	4.a\	-tri
8c#\	.	.	.	.	.	.	.
8F#\J	.	.	.	.	.	.	.
=62	=62	=62	=62	=62	=62	=62	=62
!LO:TX:a:t=Problem: mixed beam	!	!	!	!	!	!	!
8G\L	.	00r	00r	.	.	4b\	pa-
8E\	.	.	.	.	.	.	.
8A\	.	.	.	.	.	8a\	-tri
8AA/J	.	.	.	.	.	8g\	et
!	!	!	!	!	!	!LO:LB:g=original	!
8D\L	.	.	.	.	.	16f#/	fi-
.	.	.	.	.	.	16e/	-li-
16D\L	.	.	.	.	.	4d/	-o
16E\JJ	.	.	.	.	.	.	.
8F#\L	.	.	.	.	.	.	.
8D\J	.	.	.	.	.	8r	.
!LO:LB:g=original	!	!	!	!	!	!	!
=63	=63	=63	=63	=63	=63	=63	=63
!LO:TX:a:t=Problem: mixed beam	!	!	!	!	!	!	!
8G\L	.	.	.	.	.	(8b\	et
8G\	.	.	.	.	.	4dd\)	.
8GG/	.	.	.	.	.	.	.
8G\J	.	.	.	.	.	8b\	spi-
8D\L	.	.	.	.	.	8b\	-ri-
8E\	.	.	.	.	.	4a\	-tu-
8F#\	.	.	.	.	.	.	.
8D\J	.	.	.	.	.	8a\	-i
=64	=64	=64	=64	=64	=64	=64	=64
8D\L	.	.	.	.	.	(4gg\	san-
8C#\	.	.	.	.	.	.	.
8D\	.	.	.	.	.	4ff#\)	.
8G\J	.	.	.	.	.	.	.
!LO:TX:a:t=Problem: mixed beam	!	!	!	!	!	!	!
8A\L	.	.	.	.	.	8ff#\	.
8AA/J	.	.	.	.	.	8ee\	-cto
8C#/L	.	.	.	.	.	4r	.
8AA/J	.	.	.	.	.	.	.
=65	=65	=65	=65	=65	=65	=65	=65
8D\L	.	.	.	1r	.	8ff#\	et
8D\	.	.	.	.	.	4ee\	.
8G\	.	.	.	.	.	.	.
8B\J	.	.	.	.	.	8dd\	spi-
8A\L	.	.	.	.	.	4cc#\	-ri-
8G\	.	.	.	.	.	.	.
8F#\	.	.	.	.	.	8dd\	-tu-
8G\J	.	.	.	.	.	8ee\	-i
=66	=66	=66	=66	=66	=66	=66	=66
!LO:TX:a:t=Problem: mixed beam	!	!	!	!	!	!	!
8A\L	.	2r	2r	2r	.	4dd\	sanc-
8G\	.	.	.	.	.	.	.
8A\	.	.	.	.	.	4ee\	.
8AA/J	.	.	.	.	.	.	.
!LO:TX:a:t=Tutti	!	!	!	!	!	!LO:PB:g=original	!
8D\L	.	8f#/L	4.dd\	4r	.	4dd\	-to
8E\	.	8g/	.	.	.	.	.
8F#\	.	8a/	.	8A\	Si-	8dd\	si-
8G\J	.	8b/J	8ff#\	8B\	-cut	8ff#\	-cut
=67	=67	=67	=67	=67	=67	=67	=67
8A\L	.	8cc#\L	16ee\LL	8c#\L	e-	16ee\LL	e-
.	.	.	16cc#\JJ	.	.	16cc#\JJ	.
8B\	.	8dd\	4.a/	8d\J	.	4.a\	-rat
8c#\	.	8ee\	.	8e\L	-rat	.	.
8F#\J	.	8a\J	.	8c#\J	.	.	.
!LO:TX:a:t=Problem: mixed beam	!	!	!	!	!	!	!
8G\L	.	16g/LL	16b\LL	4G/	in	4b\	in
.	.	16b/	16dd\	.	.	.	.
8E\	.	16a/	16cc#\	.	.	.	.
.	.	16g/JJ	16b\JJ	.	.	.	.
!	!	!	!	!LO:TX:a:t=Problem: mixed beam	!	!	!
8A\	.	16f#/LL	16a/LL	8F#/L	prin-	8a\L	prin-
.	.	16e/	16g/	.	.	.	.
8AA/J	.	16d/	16f#/	8e\J	.	8g\J	.
.	.	16c#/JJ	16e/JJ	.	.	.	.
=68	=68	=68	=68	=68	=68	=68	=68
4D\	.	16d/LL	16f#/LL	16d\	-ci-	16f#/	-ci-
.	.	16c#/J	16e/J	16c#\	-pi-	16e/	-pi-
.	.	8d/J	8d/J	8d\	-o	8d/	-o
!	!	!	!	!LO:LB:g=original	!	!	!
8D\L	.	16A/LL	16d/LL	4A\	et	4dd\	et
.	.	16d/	16f#/	.	.	.	.
8D\J	.	16f#/	16a/	.	.	.	.
.	.	16a/JJ	16dd/JJ	.	.	.	.
*tremolo	*	*	*	*	*	*	*
!	!	!LO:LB:g=original	!	!	!	!	!
8D\L	.	16f#/LL	16a\LL	8A\	nunc	8dd\	nunc
.	.	16a/	16dd\	.	.	.	.
8D\	.	16dd/	16ff#\	8A\	et	8dd\	et
.	.	16ff#/JJ	16aa\JJ	.	.	.	.
8D\	.	8a/L	16ff#\LL	4A\	sem-	8dd\L	sem-
.	.	.	16dd\	.	.	.	.
8D\J	.	8a/J	16ccn\	.	.	8ccn\J	.
.	.	.	16a\JJ	.	.	.	.
*Xtremolo	*	*	*	*	*	*	*
=69	=69	=69	=69	=69	=69	=69	=69
!LO:TX:a:t=Problem: mixed beam	!	!	!	!	!	!	!
.	.	8qqa/	8qqcc#/	.	.	.	.
8G\L	.	4g/	4b\	4G/	-per	4b\	-per
8GG/	.	.	.	.	.	.	.
8E\	.	16B/LL	16e/LL	8B\	et	8ee\	et
.	.	16e/	16g#X/	.	.	.	.
8E\J	.	16g#X/	16b/	8B\	in	8ee\	in
.	.	16b/JJ	16ee/JJ	.	.	.	.
8E\L	.	16g#/LL	16b\LL	4.B\	se-	4.ee\	se-
.	.	16b/	16ee\	.	.	.	.
8E\	.	16ee/	16gg#X\	.	.	.	.
.	.	16gg#X/JJ	16bb\JJ	.	.	.	.
8E\	.	8b\L	16gg#\LL	.	.	.	.
.	.	.	16ee\	.	.	.	.
8E\J	.	8b\J	16dd\	8B\	-cu-	8dd\	-cu-
.	.	.	16b\JJ	.	.	.	.
!	!	!	!LO:LB:g-original	!	!	!LO:LB:g=original	!
=70	=70	=70	=70	=70	=70	=70	=70
!LO:TX:a:t=Problem: mixed beam	!	!	!	!	!	!	!
.	.	8qqb/	.	.	.	.	.
8A\L	.	4a\	4cc#\	4A\	-la	4cc#\	-la
8AA/	.	.	.	.	.	.	.
8A\	.	8cc#\L	16A/LL	8c#\	se-	8ee\	se-
.	.	.	16c#/	.	.	.	.
8A\J	.	8cc#\J	16e/	8c#\	-cu-	8ee\	-cu-
.	.	.	16a/JJ	.	.	.	.
!	!	!LO:TX:a:t=Problem: mixed beam	!	!	!	!	!
*tremolo	*	*	*	*	*	*	*
8A\L	.	8cc#\L	16e/LL	8c#\	-lo-	8ee\	-lo-
.	.	.	16a/	.	.	.	.
8A\	.	8cc#\	16cc#/	8c#\	-rum	8ee\	-rum
.	.	.	16ee/JJ	.	.	.	.
8A\	.	8e/	16cc#/LL	4c#\	a-	4ee\	a-
.	.	.	16a/	.	.	.	.
8A\J	.	8e/J	16g/	.	.	.	.
.	.	.	16e/JJ	.	.	.	.
*Xtremolo	*	*	*	*	*	*	*
!LO:LB:g=original	!	!	!	!	!	!	!
=71	=71	=71	=71	=71	=71	=71	=71
!LO:TX:a:t=Problem: mixed beam	!	!	!	!	!	!	!
8d\L	.	16d/LL	16f#/LL	4d\	-men	4ff#\	-men
.	.	16d/	16d/	.	.	.	.
8D/	.	16f#/	16f#/	.	.	.	.
.	.	16a/JJ	16a/JJ	.	.	.	.
8D/	.	16dd\LL	16dd\LL	8d\	se-	8ff#\	se-
.	.	16dd\	16dd\	.	.	.	.
8D/J	.	16ff#\	16ff#\	8d\	-cu-	8ff#\	-cu-
.	.	16aa\JJ	16aa\JJ	.	.	.	.
!LO:TX:a:t=Problem: mixed beam	!	!	!	!	!	!	!
8D\L	.	8ddd\L	8bb\L	8d\	-lo-	8ff#\	-lo-
!LO:TX:a:t=d	!	!	!	!	!	!	!
8F#\	.	8dd\J	8dd\J	8d\	-rum	8ff#\	-rum
8A\	.	4cc#\	4eeT\	4c#\	a-	4ee\	a-
8AA/J	.	.	.	.	.	.	.
!	!	!	!	!LO:LB:g=original	!	!	!
=72	=72	=72	=72	=72	=72	=72	=72
!LO:TX:a:t=Problem: mixed beam	!	!	!	!	!	!	!
8D\L	.	8dd\L	8dd\L	8d\	-men	8ff#\	-men
8F#\	.	8ff#\	8ddd\	(8d\	a-	(8ff#\	a-
8A\	.	8cc#\	8ee\	4c#\)	.	4ee\)	.
8AA/J	.	8ee\J	8ccc#\J	.	.	.	.
4D\	.	4ff#\	4ddd\	4d\	-men	4ff#\	-men
4r	.	4r	4r	4r	.	4r	.
==	==	==	==	==	==	==	==
*-	*-	*-	*-	*-	*-	*-	*-
!!!system-decoration: [(g1)][(g2)][(g3)]
!!!ENC: Anna Matuszewska
!!!END:2020-09-08
!!!ENC: Berenika Jozajtis
!!!END: 2020-05-16
